Origami/22x22/apps/davmail.svg

<svg width="22" height="22" version="1" xmlns="http://www.w3.org/2000/svg">
 <path d="m11 1c-5.5400001 0-10 4.4599999-10 10 0 5.54 4.4599999 10 10 10 5.54 0 10-4.46 10-10 0-5.5400001-4.46-10-10-10z" style="fill:#efbd2f"/>
 <path d="m11 1c-5.5395076 0-9.9991111 4.4599999-9.9991111 10 0 0.084-2e-3 0.1665 0 0.25 0.1321882-5.4230001 4.543596-9.75 9.9991111-9.75 5.455515 0 9.867123 4.3269999 9.999111 9.75 2e-3 -0.0835 0-0.166 0-0.25 0-5.5400001-4.459604-10-9.999111-10z" style="fill:#ffffff;opacity:.2"/>
 <path d="m1.00585 11.25c-0.00205 0.0835-0.00585 0.166-0.00585 0.25 0 5.54 4.4599999 10 10 10 5.54 0 10-4.46 10-10 0-0.084-4e-3 -0.1665-6e-3 -0.25-0.132 5.423-4.538 9.75-9.994 9.75-5.4560001 0-9.862-4.327-9.994-9.75z" style="opacity:.2"/>
 <path d="m9.5 5.4999999-1.4999392 5.0000001h1.9999392l-1.5000002 4h1.5000002l-1.4624702 5 4.9624702-6h-1.75l2.25-4h-2.5l2.499938-4.0000001z" style="opacity:.2"/>
 <path d="M 9.5,4.9999999 8.0000608,10 10,10 8.4999998,14 10,14 8.5375298,19 13.5,13 11.75,13 14,8.9999998 l -2.5,0 2.499938,-3.9999999 z" style="fill:#ffffff"/>
</svg>

<svg xmlns="http://www.w3.org/2000/svg" width="22" height="22" version="1">
 <path style="fill:#efbd2f" d="M 11,1 C 5.4599999,1 1,5.4599999 1,11 1,16.54 5.4599999,21 11,21 16.54,21 21,16.54 21,11 21,5.4599999 16.54,1 11,1 Z"/>
 <path style="opacity:0.2;fill:#ffffff" d="M 11,1 C 5.4604924,1 1.0008889,5.4599999 1.0008889,11 c 0,0.084 -0.002,0.1665 0,0.25 C 1.1330771,5.8269999 5.5444849,1.5 11,1.5 c 5.455515,0 9.867123,4.3269999 9.999111,9.75 0.002,-0.0835 0,-0.166 0,-0.25 C 20.999111,5.4599999 16.539507,1 11,1 Z"/>
 <path style="opacity:0.2" d="M 1.00585,11.25 C 1.0038,11.3335 1,11.416 1,11.5 c 0,5.54 4.4599999,10 10,10 5.54,0 10,-4.46 10,-10 0,-0.084 -0.004,-0.1665 -0.006,-0.25 C 20.862,16.673 16.456,21 11,21 5.5439999,21 1.138,16.673 1.006,11.25 Z"/>
 <path style="opacity:0.2" d="M 9.5,5.4999999 8.0000608,10.5 10,10.5 8.4999998,14.5 10,14.5 8.5375298,19.5 13.5,13.5 l -1.75,0 2.25,-4 -2.5,0 2.499938,-4.0000001 z"/>
 <path style="fill:#ffffff" d="M 9.5,4.9999999 8.0000608,10 10,10 8.4999998,14 10,14 8.5375298,19 13.5,13 11.75,13 14,8.9999998 l -2.5,0 2.499938,-3.9999999 z"/>
</svg>
